!!!!SEGMENT: T557_Mai-w23b2p146h11m1-10.krn
!!!COM: Martin, Frank
!!!OTL: Part II, Scene 3: À trois jours de là (Three Days Away)
!!!AGN: Stage
!!!AGN-sub: Theatrical
!!!CNT: Swiss
!!!ODT: 1941
!!!OPR: Le Vin herbé (The Drugged Wine), Secular Oratorio for Twelve Solo Voices, Strings and Piano
!!!filename: T557_Mai-w23b2p146h11m1-10.krn
**kern	**dynam	**kern	**dynam	**kern	**dynam	**kern	**dynam	**kern	**dynam	**blank	**kern	**dynam	**kern	**dynam	**kern	**kern	**dynam	**kern	**text	**text	**dynam
*grp:A	*	*grp:A	*	*grp:A	*	*grp:B	*	*grp:B	*	*grp:B	*grp:B	*	*grp:B	*	*grp:A	*grp:A	*	*grp:A	*	*	*
*part6	*	*part5	*	*part5	*	*part4	*	*part4	*	*	*part3	*	*part3	*	*part2	*part2	*	*part1	*	*	*
*staff10	*	*staff9	*	*staff8	*	*staff7	*	*staff6	*	*	*staff5	*	*staff4	*	*staff3	*staff2	*	*staff1	*	*	*
*I"Contrabass	*	*I"Violoncello	*	*	*	*I"Viola	*	*	*	*	*I"Violin	*	*	*	*I"Piano	*	*	*I"TRISTAN	*	*	*
*I'cb	*	*I'vc	*	*	*	*I'vla	*	*	*	*	*I'vn	*	*	*	*I'pf	*	*	*I'TRI.	*	*	*
*ICstr	*	*ICstr	*	*ICstr	*	*ICstr	*	*ICstr	*	*	*ICstr	*	*ICstr	*	*ICklav	*ICklav	*	*ICvox	*	*	*
*Icbass	*	*Icello	*	*Icello	*	*Iviola	*	*Iviola	*	*	*Ivioln	*	*Ivioln	*	*Ipiano	*Ipiano	*	*Ivox	*	*	*
*clefF4	*	*clefF4	*	*clefF4	*	*clefC3	*	*clefC3	*	*	*clefG2	*	*clefG2	*	*clefF4	*clefG2	*	*clefGv2	*	*	*
*ITrd7c12	*	*	*	*	*	*	*	*	*	*	*	*	*	*	*	*	*	*	*	*	*
*k[]	*	*k[]	*	*k[]	*	*k[]	*	*k[]	*	*	*k[]	*	*k[]	*	*k[]	*k[]	*	*k[]	*	*	*
!!LO:TX:tempo:a:t=Molto allegro\n[half]=116
*M4/4	*	*M4/4	*	*M4/4	*	*M4/4	*	*M4/4	*	*	*M4/4	*	*M4/4	*	*M4/4	*M4/4	*	*M4/4	*	*	*
!!LO:REH:t=11
=98	=98	=1	=1	=1	=1	=1	=1	=1	=1	=1	=1	=1	=1	=1	=1	=1	=1	=1	=1	=1	=1
!!LO:TX:B:t=Molto Allegro [half]=116
!LO:TX:b:i:t=dolce	!	!LO:TX:b:i:t=dolce	!	!	!	!	!	!	!	!	!	!	!	!	!	!	!	!	!	!	!
!LO:TX:a:t=pizz.	!LO:DY:ed=brack	!LO:TX:a:t=pizz.	!LO:DY:ed=brack	!	!LO:DY:t=%s marcato	!	!LO:DY:t=%s  subito	!	!LO:DY:t=%s  subito	!	!	!LO:DY:t=%s  subito	!	!LO:DY:t=%s  subito	!	!	!LO:DY:t=%s  dolce	!	!	!	!
2DD	f	2D	f	[1GG	mf	2.b-X	p	2.cc#X	p	.	2.gg	p	2.eee-X	p	2r	[1G [1B-X [1c#X [1e-X	p	1r	.	.	.
*	*	*	*	*	*	*	*	*	*	*	*	*	*	*	*8ba	*	*	*	*	*	*
!	!	!	!	!	!	!	!	!	!	!	!	!	!	!	!LO:T:lv	!	!	!	!	!	!
2r	.	2r	.	.	.	.	.	.	.	.	.	.	.	.	[4DDD' 4DD	.	.	.	.	.	.
.	.	.	.	.	.	[4B-X	.	[4c#X	.	.	[4g	.	[4ee-X	.	4r	.	.	.	.	.	.
=99	=99	=2	=2	=2	=2	=2	=2	=2	=2	=2	=2	=2	=2	=2	=2	=2	=2	=2	=2	=2	=2
!	!	!	!	!	!	!	!	!	!	!	!	!	!	!	!	!	!	!	!	!	!LO:DY:t= sempre %s
2DD	.	2D	.	1GG]	.	2B-]	.	2c#]	.	.	2g]	.	2ee-]	.	2r	1G_ 1B-_ 1c#_ 1e-_	.	4r	.	.	f
!	!	!	!	!	!	!	!	!	!	!	!	!	!	!	!	!	!	!LO:T:dash	!	!	!
.	.	.	.	.	.	.	.	.	.	.	.	.	.	.	.	.	.	[4G	et	Und	.
!	!	!	!	!	!	!	!	!	!	!	!	!	!	!	!LO:T:lv	!	!	!	!	!	!
2r	.	2r	.	.	.	[2b-X	.	[2cc#X	.	.	[2gg	.	[2eee-X	.	[4DDD' 4DD	.	.	4G]	la	.	.
.	.	.	.	.	.	.	.	.	.	.	.	.	.	.	4r	.	.	4A	no-	der	.
=100	=100	=3	=3	=3	=3	=3	=3	=3	=3	=3	=3	=3	=3	=3	=3	=3	=3	=3	=3	=3	=3
2DD	.	2D	.	1GG-X	.	4b-]	.	4cc#]	.	.	4gg]	.	4eee-]	.	2r	4G] 4B-] 4c#] 4e-]	.	4B-X	-bles-	A-	.
.	.	.	.	.	.	2.dd-X	.	2.een	.	.	2.bb-X	.	2.ggg-X	.	.	2.B-X 2.d-X 2.en 2.g-X	.	4GZ	-se	-del	.
!	!	!	!	!	!	!	!	!	!	!	!	!	!	!	!LO:T:lv	!	!	!	!	!	!
2r	.	2r	.	.	.	.	.	.	.	.	.	.	.	.	[4DDD' 4DD	.	.	4A	de	sei-	.
.	.	.	.	.	.	.	.	.	.	.	.	.	.	.	4r	.	.	4B-	son	-nes	.
=101	=101	=4	=4	=4	=4	=4	=4	=4	=4	=4	=4	=4	=4	=4	=4	=4	=4	=4	=4	=4	=4
*	*	*	*	*	*	*	*	*	*	*	*	*	*	*	*	*	*	*^	*	*	*
2DD	.	2D	.	[1EE-X	.	2.ee-X	.	2.ff#X	.	.	2.ccc	.	2.aaa-X	.	2r	[1c [1e-X [1g-X [1a-X	.	(1c	2c	coeur	Her-	.
!	!	!	!	!	!	!	!	!	!	!	!	!	!	!	!LO:T:lv	!	!	!	!	!	!	!
2r	.	2r	.	.	.	.	.	.	.	.	.	.	.	.	[4DDD' 4DD	.	.	.	4c	.	-zens	.
.	.	.	.	.	.	[4E-X	.	[4F#X	.	.	[4c	.	[4a-X	.	4r	.	.	.	4c	.	hat	.
*	*	*	*	*	*	*	*	*	*	*	*	*	*	*	*	*	*	*v	*v	*	*	*
=102	=102	=5	=5	=5	=5	=5	=5	=5	=5	=5	=5	=5	=5	=5	=5	=5	=5	=5	=5	=5	=5
2DD	.	2D	.	1EE-]	.	2E-]	.	2F#]	.	.	2c]	.	2a-]	.	2r	1c] 1e-] 1g-] 1a-_	.	4c)	.	ihn	.
.	.	.	.	.	.	.	.	.	.	.	.	.	.	.	.	.	.	4c	l'a	da-	.
!	!	!	!	!	!	!	!	!	!	!	!	!	!	!	!LO:T:lv	!	!	!	!	!	!
2r	.	2r	.	.	.	(2e-X	.	(2f#X	.	.	(2cc	.	[2aa-X	.	[4DDD' 4DD	.	.	4c	in-	-zu	.
*	*	*	*	*	*	*	*	*	*	*	*	*	*	*	*X8ba	*	*	*	*	*	*
.	.	.	.	.	.	.	.	.	.	.	.	.	.	.	4r	.	.	4c	-cli-	ge-	.
*	*	*	*	*	*	*	*	*	*	*	*	*	*	*	*	*	*	*	*	*	*
=103	=103	=6	=6	=6	=6	=6	=6	=6	=6	=6	=6	=6	=6	=6	=6	=6	=6	=6	=6	=6	=6
2AA-X	.	2AA-X	.	([1EE-X	.	2.f-X)	.	2.a-X)	.	.	2.b--)	.	2.aa-]	.	2r	[1B-- [1f-X 1a-_	.	2.e-X	-né	-führt,	.
!	!	!	!	!	!	!	!	!	!	!	!	!	!	!	!LO:T:lv	!	!	!	!	!	!
2r	.	2r	.	.	.	.	.	.	.	.	.	.	.	.	[4AAA-X' 4AA-X	.	.	.	.	.	.
.	.	.	.	.	.	[4F-X	.	[4A-X	.	.	[4B--	.	[4a-X	.	4r	.	.	4c	à	die	.
=104	=104	=7	=7	=7	=7	=7	=7	=7	=7	=7	=7	=7	=7	=7	=7	=7	=7	=7	=7	=7	=7
2AA-X	.	2AA-X	.	2EE-]	.	2F-]	.	2A-]	.	.	2B--]	.	2a-]	.	2r	1B--_ 1f-_ 1a-_	.	4c	com-	Din-	.
.	.	.	.	.	.	.	.	.	.	.	.	.	.	.	.	.	.	[4c~	-pre-	-ge	.
!	!	!	!	!	!	!	!	!	!	!	!	!	!	!	!LO:T:lv	!	!	!	!	!	!
2r	.	2r	.	[2DD-X	.	[2f-X	.	[2a-X	.	.	[2b--	.	[2aa-X	.	[4AAA-X' 4AA-X	.	.	6c]	.	.	.
.	.	.	.	.	.	.	.	.	.	.	.	.	.	.	.	.	.	6c	-dre	zu	.
.	.	.	.	.	.	.	.	.	.	.	.	.	.	.	4r	.	.	.	.	.	.
.	.	.	.	.	.	.	.	.	.	.	.	.	.	.	.	.	.	6c	les	ver-	.
=105	=105	=8	=8	=8	=8	=8	=8	=8	=8	=8	=8	=8	=8	=8	=8	=8	=8	=8	=8	=8	=8
2AA-X	.	2AA-X	.	2DD-])	.	4f-X]	.	4a-X]	.	.	4b--X]	.	4aa-X]	.	2r	1B--X] 1f-X] 1a-X]	.	2c	cho-	-ste-	.
.	.	.	.	.	.	2.F-X	.	2.A-X	.	.	2.B--	.	2.a-X	.	.	.	.	.	.	.	.
!	!	!	!	!	!	!	!	!	!	!	!	!	!	!	!LO:T:lv	!	!	!	!	!	!
2r	.	2r	.	4r	.	.	.	.	.	.	.	.	.	.	[4AAA-X' 4AA-X	.	.	4c	-ses	-hen,	.
.	.	.	.	(4D-Xi	.	.	.	.	.	.	.	.	.	.	4r	.	.	4r	.	.	.
=106	=106	=9	=9	=9	=9	=9	=9	=9	=9	=9	=9	=9	=9	=9	=9	=9	=9	=9	=9	=9	=9
2GG#X	.	2GG#X	.	[1Dn	.	2.Dn	.	2.An	.	.	2.fn	.	2.g#X	.	2r	[1An [1fn [1g#X	.	4r	.	.	.
.	.	.	.	.	.	.	.	.	.	.	.	.	.	.	.	.	.	4B	qu'au-	wel-	.
!	!	!	!	!	!	!	!	!	!	!	!	!	!	!	!LO:T:lv	!	!	!	!	!	!
2r	.	2r	.	.	.	.	.	.	.	.	.	.	.	.	[4GGG#X' 4GG#X	.	.	4B	-tour	-che	.
.	.	.	.	.	.	[4d	.	[4an	.	.	[4ff	.	[4gg#X	.	4r	.	.	4B	de	die	.
=107	=107	=10	=10	=10	=10	=10	=10	=10	=10	=10	=10	=10	=10	=10	=10	=10	=10	=10	=10	=10	=10
*	*	*	*	*	*	*	*	*	*	*	*	*	*	*	*	*	*	*^	*	*	*
2GG#X	.	2GG#X	.	1D_	.	2d]	.	2a]	.	.	2ff]	.	2gg#]	.	2r	1A_ 1f_ 1g#_	.	2B	2.B	lui	Män-	.
!	!	!	!	!	!	!	!	!	!	!	!	!	!	!	!LO:T:lv	!	!	!	!	!	!	!
2r	.	2r	.	.	.	[2D	.	[2A	.	.	[2f	.	[2g#X	.	[4GGG#X' 4GG#X	.	.	4B\	.	.	-ner,	.
.	.	.	.	.	.	.	.	.	.	.	.	.	.	.	4r	.	.	4B\	4Byy	ses	die	.
*	*	*	*	*	*	*	*	*	*	*	*	*	*	*	*	*	*	*v	*v	*	*	*
=	=	=	=	=	=	=	=	=	=	=	=	=	=	=	=	=	=	=	=	=	=
*-	*-	*-	*-	*-	*-	*-	*-	*-	*-	*-	*-	*-	*-	*-	*-	*-	*-	*-	*-	*-	*-
!!!system-decoration: s1[({(s2,s3)})][([({(s4,s5)})][({(s6,s7)})][({(s8,s9)})]s10)]
!!!RDF**kern: i = marked note, color="hotpink", text="extra("
!!!RDF**kern: Z = editorial accidental, parentheses
!!!EED: Claudio de Freitas
!!!EEV: 2021/10/19
!!!EED2: Jason Lee
!!!Suter_Work_ID: Mai-23
!!!Suter_Example_Number: 557
!!!Suter_Example_ID: Mai-23^2/146/[11]1-10
!!!Premiere_Location: Zürich,Switzerland
!!!Other_Tsigs: none
!!!Full_Unit_Duration: 9:57
!!!First_Publication_Year: 1943
!!!First_Public_Performance_Year: 1942
!!!Example_Total_Measures: 10
!!!Example_Timestamp_Duration: 11
!!!Example_Start_Tsig_Type: simple duple
!!!Example_Start_Tsig_Mean_Beat_Rate: 116
!!!Example_Start_Tsig_Beat_Rate: 116
!!!Example_Start_Tsig_Beat: half
!!!Example_Start_Tsig: 2/2
!!!Example_Start_Timestamp: 4:17
!!!Example_Start_Tempo_Expression: Molto allegro
!!!Example_Start_Notated_Beat_Rate: 116
!!!Example_Start_Notated_Beat: half
!!!Example_Start_Measure: 98
!!!Example_Metadata_Validated: Y
!!!Example_End_Timestamp: 4:28
!!!Example_End_Measure: 107
!!!Example_Dataset: T
!!!Editorial_Comments:
!!!Death_Place: Naarden,Netherlands
!!!Death_Date: 21-Nov-1974
!!!Changing_Tsig: no
!!!Birth_Place: Geneva,Switzerland
!!!Birth_Date: 15-Sep-1890
!!!Audio_Example_Quarter_Note_Tempo:
!!!Audio_Example_Duration:
!!!EEV2: 2022/02/03
